Numix/64/emotes/face-in-love.svg

<?xml version="1.0" encoding="UTF-8" standalone="no"?>
<svg
   xmlns:dc="http://purl.org/dc/elements/1.1/"
   xmlns:cc="http://creativecommons.org/ns#"
   xmlns:rdf="http://www.w3.org/1999/02/22-rdf-syntax-ns#"
   xmlns:svg="http://www.w3.org/2000/svg"
   xmlns="http://www.w3.org/2000/svg"
   xmlns:sodipodi="http://sodipodi.sourceforge.net/DTD/sodipodi-0.dtd"
   xmlns:inkscape="http://www.inkscape.org/namespaces/inkscape"
   width="64px"
   height="64px"
   viewBox="0 0 48 48"
   version="1.1"
   id="svg310"
   inkscape:version="0.91 r"
   sodipodi:docname="face-in-love.svg">
  <metadata
     id="metadata325">
    <rdf:RDF>
      <cc:Work
         rdf:about="">
        <dc:format>image/svg+xml</dc:format>
        <dc:type
           rdf:resource="http://purl.org/dc/dcmitype/StillImage" />
      </cc:Work>
    </rdf:RDF>
  </metadata>
  <defs
     id="defs323" />
  <sodipodi:namedview
     pagecolor="#ffffff"
     bordercolor="#666666"
     borderopacity="1"
     objecttolerance="10"
     gridtolerance="10"
     guidetolerance="10"
     inkscape:pageopacity="0"
     inkscape:pageshadow="2"
     inkscape:window-width="640"
     inkscape:window-height="480"
     id="namedview321" />
  <g
     id="surface1">
    <path
       style=" stroke:none;fill-rule:nonzero;fill:rgb(100%,85.490196%,36.862745%);fill-opacity:1;"
       d="M 42 24 C 42 32.5625 33.941406 39.5 24 39.5 C 14.058594 39.5 6 32.5625 6 24 C 6 15.441406 14.058594 8.5 24 8.5 C 33.941406 8.5 42 15.441406 42 24 Z M 42 24 "
       id="path313" />
    <path
       style=" stroke:none;fill-rule:nonzero;fill:rgb(39.607843%,39.607843%,39.607843%);fill-opacity:1;"
       d="M 17.097656 28 C 17.667969 30.886719 20.585938 33 24 33 C 27.414062 32.996094 30.324219 30.882812 30.894531 28 L 29.933594 28 C 29.507812 29.71875 26.980469 30.996094 24 31 C 21.019531 30.996094 18.492188 29.71875 18.066406 28 Z M 17.097656 28 "
       id="path315" />
    <path
       style=" stroke:none;fill-rule:nonzero;fill:rgb(100%,40%,40%);fill-opacity:1;"
       d="M 17.683594 23.695312 C 17.511719 23.5 17.082031 23.125 16.730469 22.859375 C 15.683594 22.066406 15.539062 21.953125 15.113281 21.5625 C 14.332031 20.839844 14 20.113281 14 19.132812 C 14 18.652344 14.035156 18.46875 14.167969 18.183594 C 14.394531 17.703125 14.730469 17.347656 15.160156 17.128906 C 15.464844 16.976562 15.613281 16.90625 16.121094 16.90625 C 16.652344 16.902344 16.765625 16.964844 17.078125 17.136719 C 17.457031 17.34375 17.851562 17.789062 17.929688 18.109375 L 17.980469 18.304688 L 18.105469 18.035156 C 18.800781 16.507812 21.023438 16.53125 21.796875 18.070312 C 22.042969 18.558594 22.070312 19.601562 21.851562 20.191406 C 21.570312 20.957031 21.035156 21.542969 19.800781 22.4375 C 18.992188 23.023438 18.078125 23.914062 18.015625 24.035156 C 17.941406 24.183594 18.011719 24.058594 17.683594 23.695312 Z M 17.683594 23.695312 "
       id="path317" />
    <path
       style=" stroke:none;fill-rule:nonzero;fill:rgb(100%,40%,40%);fill-opacity:1;"
       d="M 29.683594 23.695312 C 29.511719 23.5 29.082031 23.125 28.730469 22.859375 C 27.683594 22.066406 27.539062 21.953125 27.113281 21.5625 C 26.332031 20.839844 26 20.113281 26 19.132812 C 26 18.652344 26.035156 18.46875 26.167969 18.183594 C 26.394531 17.703125 26.730469 17.347656 27.160156 17.128906 C 27.464844 16.976562 27.613281 16.90625 28.121094 16.90625 C 28.652344 16.902344 28.765625 16.964844 29.078125 17.136719 C 29.457031 17.34375 29.851562 17.789062 29.929688 18.109375 L 29.980469 18.304688 L 30.105469 18.035156 C 30.800781 16.507812 33.023438 16.53125 33.796875 18.070312 C 34.042969 18.558594 34.070312 19.601562 33.851562 20.191406 C 33.570312 20.957031 33.035156 21.542969 31.800781 22.4375 C 30.992188 23.023438 30.078125 23.914062 30.015625 24.035156 C 29.941406 24.183594 30.011719 24.058594 29.683594 23.695312 Z M 29.683594 23.695312 "
       id="path319" />
  </g>
</svg>

<svg xmlns="http://www.w3.org/2000/svg" width="64" height="64" viewBox="0 0 48 48">
 <g>
  <path d="m 42 24 c 0 8.563 -8.06 15.5 -18 15.5 c -9.941 0 -18 -6.938 -18 -15.5 c 0 -8.559 8.06 -15.5 18 -15.5 c 9.941 0 18 6.941 18 15.5 m 0 0" style="fill:#ffd95d;fill-opacity:1;stroke:none;fill-rule:nonzero"/>
  <path d="m 17.1 28 c 0.57 2.887 3.488 5 6.902 5 c 3.414 -0.004 6.324 -2.117 6.895 -5 l -0.961 0 c -0.426 1.719 -2.953 2.996 -5.934 3 c -2.98 -0.004 -5.508 -1.281 -5.934 -3 m -0.969 0" style="fill:#646464;fill-opacity:1;stroke:none;fill-rule:nonzero"/>
  <path d="m 17.684 23.695 c -0.172 -0.195 -0.602 -0.57 -0.953 -0.836 c -1.047 -0.793 -1.191 -0.906 -1.617 -1.297 c -0.781 -0.723 -1.113 -1.449 -1.113 -2.43 c 0 -0.48 0.035 -0.664 0.168 -0.949 c 0.227 -0.48 0.563 -0.836 0.992 -1.055 c 0.305 -0.152 0.453 -0.223 0.961 -0.223 c 0.531 -0.004 0.645 0.059 0.957 0.23 c 0.379 0.207 0.773 0.652 0.852 0.973 l 0.051 0.195 l 0.125 -0.27 c 0.695 -1.527 2.918 -1.504 3.691 0.035 c 0.246 0.488 0.273 1.531 0.055 2.121 c -0.281 0.766 -0.816 1.352 -2.051 2.246 c -0.809 0.586 -1.723 1.477 -1.785 1.598 c -0.074 0.148 -0.004 0.023 -0.332 -0.34 m 0 0" style="fill:#f66;fill-opacity:1;stroke:none;fill-rule:nonzero"/>
  <path d="m 29.684 23.695 c -0.172 -0.195 -0.602 -0.57 -0.953 -0.836 c -1.047 -0.793 -1.191 -0.906 -1.617 -1.297 c -0.781 -0.723 -1.113 -1.449 -1.113 -2.43 c 0 -0.48 0.035 -0.664 0.168 -0.949 c 0.227 -0.48 0.563 -0.836 0.992 -1.055 c 0.305 -0.152 0.453 -0.223 0.961 -0.223 c 0.531 -0.004 0.645 0.059 0.957 0.23 c 0.379 0.207 0.773 0.652 0.852 0.973 l 0.051 0.195 l 0.125 -0.27 c 0.695 -1.527 2.918 -1.504 3.691 0.035 c 0.246 0.488 0.273 1.531 0.055 2.121 c -0.281 0.766 -0.816 1.352 -2.051 2.246 c -0.809 0.586 -1.723 1.477 -1.785 1.598 c -0.074 0.148 -0.004 0.023 -0.332 -0.34 m 0 0" style="fill:#f66;fill-opacity:1;stroke:none;fill-rule:nonzero"/>
 </g>
</svg>
